X:160
T:The Temperance Reel
M:C|
L:1/8
K:G
D|G2 GF GABc|d2 ge dBAc|BEED EFGA|BGAF GFED|
G3 F GABc|dBge dBAc|BEED EFGA|BGAF G3 :|
A|Beed e3 g|fgaf gfed|Add^c d3 e|fgaf gfed|
Beed e3 g|fgaf gfed|BEED EFGA|BGAF G3 :|
